build/img/icons/services/1.svg

<svg width="52" height="52" viewBox="0 0 52 52" fill="none" xmlns="http://www.w3.org/2000/svg">
<g clip-path="url(#clip0)">
<path fill-rule="evenodd" clip-rule="evenodd" d="M16.1575 26.0045L16.4847 26.2447C16.9573 26.537 17.2442 26.6449 17.7987 26.7318C19.3509 26.9752 20.7697 26.1072 21.336 24.6877C21.3588 24.6305 21.3855 24.5187 21.4113 24.4653C21.474 24.3357 21.5519 24.3645 21.8223 24.2762C21.9801 24.2247 22.1284 24.1888 22.2775 24.1329L22.2684 21.8847L22.266 21.8215L22.2562 19.9037L21.9539 19.6621C21.6985 19.4237 21.8262 19.6022 21.4601 19.1935L21.2632 18.9711C21.1616 18.8461 21.0267 18.4791 20.9773 18.3839L20.645 17.5769C20.5803 17.4257 20.5252 17.3064 20.5276 17.1017C21.0083 16.7354 21.4866 15.7162 21.5067 15.0146C21.5286 14.2531 21.431 13.7359 21.0866 13.1163C20.9756 12.9167 20.7971 12.7202 20.7754 12.6439C20.8707 12.5219 21.6028 12.1429 22.0109 11.3576C22.1572 11.0761 22.2783 10.7835 22.3536 10.4402C22.4542 9.98068 22.3513 9.60462 22.3996 9.19401C22.5715 9.1149 23.3371 9.04599 24.2183 8.55147C24.4756 8.4071 24.7401 8.25812 24.9519 8.05803C25.2645 7.76276 25.3233 7.88056 25.9997 7.88074C27.4931 7.88104 26.3312 7.76552 27.7805 8.55225C28.1402 8.74742 28.7022 8.96897 29.1114 9.07675C29.2052 9.10141 29.2534 9.12426 29.3388 9.14153C29.3862 9.15107 29.4272 9.15455 29.4672 9.16456L29.6096 9.224C29.5586 10.2604 29.5924 10.5853 29.9884 11.3576C30.3981 12.1566 31.1124 12.4969 31.2268 12.6439C31.1532 12.789 31.0082 12.9328 30.914 13.1172C30.751 13.4361 30.5428 13.8789 30.5108 14.2617C30.4766 14.6707 30.4403 14.9624 30.5191 15.33C30.5692 15.5635 30.715 16.0171 30.8145 16.199C30.8695 16.2995 30.8933 16.3636 30.9493 16.457C31.5527 17.4638 31.6312 16.7054 31.2347 17.8771C31.189 18.0123 31.2273 17.93 31.1698 18.0241L30.9339 18.5937C30.9097 18.6465 30.8856 18.685 30.8603 18.7297L30.6293 19.098C30.5417 19.2199 30.5678 19.2389 30.4439 19.3406L30.2554 19.5394C30.1851 19.6167 30.1297 19.6757 30.056 19.758C29.9842 19.8382 29.9296 19.8758 29.8487 19.9445C29.7234 20.0508 29.7305 20.0518 29.7312 20.2316C29.7333 20.7543 29.7109 21.3187 29.7364 21.8357L29.7247 21.8929L29.7159 24.1334C29.9948 24.2259 30.2926 24.2976 30.5611 24.3956C30.8667 25.4272 31.6416 26.2584 32.6055 26.5856C33.1726 26.7781 33.8317 26.8484 34.4756 26.6932C35.3066 26.493 35.7187 26.0344 35.88 25.9839C35.9884 25.806 36.7484 25.2151 36.9151 24.1897C37.001 23.6617 36.9982 23.4055 36.9257 22.9027C36.8509 22.3854 36.5776 21.9761 36.5702 21.8536C37.3128 21.3109 37.7279 20.1912 37.6971 19.2136C37.6817 18.7224 37.4836 18.1098 37.2688 17.7548C36.8773 17.1082 36.443 16.855 36.375 16.7238C36.4063 16.6499 36.5701 16.4386 36.6965 16.1685C36.7954 15.9571 36.856 15.7732 36.9381 15.5133C37.062 15.1216 37.0282 14.2777 36.9142 13.9046C36.6029 12.8867 36.1734 12.4539 35.361 11.9005C35.438 11.6876 36.0949 11.1155 36.1196 9.85521C36.1459 8.51998 35.5303 8.00201 35.4386 7.72407C35.5835 7.47624 35.7225 7.44494 35.947 6.93225C36.0979 6.58767 36.1494 6.20927 36.0973 5.82631C36.0035 5.13633 35.6791 4.61086 35.1655 4.16786C34.7551 3.81387 34.1465 3.44243 33.5172 3.23695C33.0348 3.07945 32.49 2.93376 31.9585 2.8811C30.9864 2.78477 31.5338 2.94114 30.978 2.17342C30.581 1.62498 29.9601 1.07199 29.3234 0.769936C28.1339 0.205544 27.3997 -5.99648e-05 25.9997 1.3118e-08C24.3001 1.3118e-08 22.7126 0.459431 21.4926 1.62618C21.2917 1.81829 21.1832 1.95336 21.0214 2.17342C20.7926 2.48452 20.7857 2.59848 20.6577 2.82946C20.2294 2.87036 19.9036 2.88746 19.5033 2.96237C19.0995 3.038 18.8376 3.12233 18.481 3.23593C17.3324 3.60173 16.0888 4.51106 15.8977 5.81828C15.8633 6.05363 15.8899 6.19758 15.9064 6.4084C15.9277 6.68016 15.9288 6.54947 15.9618 6.68496L16.0219 6.86639C16.0493 6.91887 16.0186 6.84324 16.0509 6.92469C16.2253 7.36553 16.4004 7.45039 16.5612 7.72407C16.4841 7.96806 15.8608 8.49707 15.8796 9.85521C15.8851 10.2481 15.9781 10.6782 16.1171 11.0087C16.3269 11.5078 16.5922 11.7729 16.6386 11.9005C16.2317 12.177 16.0306 12.287 15.6905 12.7132C15.4018 13.075 15.2367 13.4165 15.0856 13.9069C14.8315 14.7312 15.0185 15.8706 15.5416 16.5893C15.6045 16.676 15.6045 16.6482 15.6215 16.7602C14.3469 17.77 13.9438 19.3219 14.6123 20.7898C14.7611 21.1164 14.9702 21.393 15.1992 21.6429C15.2759 21.7266 15.3971 21.8168 15.4353 21.8836C15.2697 22.31 15.227 22.1811 15.0614 22.9069C14.9708 23.3047 15.0078 23.8254 15.0888 24.2176C15.2478 24.9872 15.6429 25.5012 16.1575 26.0045Z" fill="#DADBED"/>
<path fill-rule="evenodd" clip-rule="evenodd" d="M16.1575 26.0045C16.0449 25.9957 13.983 26.6258 13.7251 26.7068C13.4869 26.7815 11.4783 27.3637 11.3369 27.4366C10.7162 27.7562 10.5465 28.3054 10.3989 28.8752L10.0677 30.0918C9.97616 30.4305 9.59974 31.8147 9.61029 31.9986L10.3086 32.8346C10.5953 33.1493 11.4906 34.0681 11.8175 34.3568C11.9036 34.4327 11.9523 34.4798 12.0202 34.5433L12.622 35.0515C13.0544 35.4229 13.6643 35.876 14.3046 36.3069L16.5582 36.4942C21.0352 37.0564 20.8185 33.6138 20.818 33.604L20.7343 31.9122H23.8645C23.7034 31.7155 23.5373 31.4529 23.4106 31.1037C23.139 30.3553 23.2866 29.799 23.4744 29.1104C23.6543 28.4505 24.1375 27.2239 24.44 26.5319C24.5364 26.3114 24.7294 25.9258 24.7876 25.7144C24.8729 25.3511 24.844 23.9323 24.8254 23.4733C24.5831 23.3341 23.3708 23.1427 22.4176 21.9888C22.3378 21.8921 22.3801 21.9063 22.2685 21.8848L22.2775 24.133C22.1284 24.1888 21.9801 24.2247 21.8223 24.2763C21.5519 24.3645 21.474 24.3357 21.4113 24.4654C21.3855 24.5188 21.3588 24.6306 21.336 24.6877C20.7697 26.1072 19.3509 26.9752 17.7987 26.7319C17.2442 26.645 16.9573 26.5371 16.4847 26.2447L16.1575 26.0045ZM17.5848 38.0978C18.5242 38.5128 19.512 38.8818 20.6222 39.1675C23.2533 39.8446 26.1274 40.0445 28.841 39.6668C30.9622 39.3715 32.6446 38.8777 34.4158 38.0978H33.2914C29.3287 37.4776 29.5726 33.5283 29.5726 33.5283H27.2999C26.9917 34.053 26.3341 34.723 25.9997 34.8746C25.6627 34.7221 25.0153 34.0648 24.7031 33.5283H22.4278C22.4278 33.5283 22.6715 37.4776 18.7088 38.0978H17.5848ZM37.6411 36.3417C38.5459 35.7373 39.4356 35.0589 40.0096 34.5135C40.7665 33.7945 41.3631 33.2236 42.051 32.4147C42.1756 32.2681 42.3019 32.1246 42.3895 31.9985C42.4017 31.8049 42.0985 30.6979 42.0236 30.4531C41.7337 29.506 41.6237 28.3037 41.0202 27.7109C40.8617 27.5551 40.7244 27.4383 40.4438 27.3576C40.3274 27.3241 40.2113 27.2845 40.0777 27.2434C39.8666 27.1784 39.9621 27.2176 39.7393 27.237C39.6773 27.0859 39.7215 27.1252 39.3274 27.0192L37.8708 26.5797C37.5575 26.4761 37.1791 26.377 36.8641 26.2858C36.5455 26.1936 36.2019 26.0771 35.88 25.984C35.7187 26.0344 35.3066 26.493 34.4756 26.6933C33.8317 26.8484 33.1726 26.7781 32.6055 26.5857C31.6416 26.2585 30.8667 25.4272 30.5611 24.3956C30.2926 24.2976 29.9948 24.2259 29.7159 24.1334L29.7247 21.8929C29.6055 21.9095 29.5044 22.0678 29.4348 22.1388C28.9755 22.6086 28.5373 22.9267 27.9423 23.1932C27.8263 23.2452 27.2401 23.4347 27.198 23.4726C27.1351 23.5862 27.1555 25.4738 27.197 25.6838L27.8917 27.3363C28.1218 27.9049 28.3287 28.4763 28.5181 29.0887C28.7338 29.7859 28.8342 30.3559 28.5875 31.0978C28.4704 31.45 28.3193 31.698 28.1341 31.9122H31.266L31.1823 33.604C31.1818 33.6138 30.9651 37.0564 35.442 36.4942L37.6411 36.3417Z" fill="#9BA4D3"/>
<path fill-rule="evenodd" clip-rule="evenodd" d="M24.7876 25.7144C24.7294 25.9258 24.5364 26.3114 24.44 26.5319C24.1375 27.2239 23.6543 28.4506 23.4744 29.1104C23.2866 29.799 23.139 30.3553 23.4106 31.1037C23.5373 31.4529 23.7034 31.7155 23.8645 31.9122H28.1341C28.3193 31.698 28.4704 31.45 28.5875 31.0978C28.8342 30.3559 28.7338 29.7859 28.5182 29.0887C28.3287 28.4763 28.1218 27.9049 27.8917 27.3363L27.197 25.6838C27.0364 25.5233 27.204 23.9426 27.1263 23.4814C26.9787 23.4817 26.7726 23.5648 26.6273 23.5827C25.7997 23.6851 25.1841 23.4994 24.8629 23.4951C24.8544 23.7982 24.926 25.591 24.7876 25.7144ZM24.7031 33.5283C25.0153 34.0648 25.6627 34.7221 25.9997 34.8746C26.3341 34.723 26.9917 34.053 27.2999 33.5283H24.7031Z" fill="#DADBED"/>
<path fill-rule="evenodd" clip-rule="evenodd" d="M22.266 21.8216L22.2685 21.8848C22.3801 21.9063 22.3378 21.8921 22.4176 21.9888C23.3708 23.1427 24.5831 23.3341 24.8254 23.4733C24.844 23.9323 24.8729 25.3511 24.7876 25.7144C24.926 25.591 24.8544 23.7982 24.8629 23.4951C25.1841 23.4994 25.7997 23.6851 26.6274 23.5827C26.7726 23.5648 26.9787 23.4817 27.1263 23.4814C27.204 23.9426 27.0364 25.5233 27.197 25.6838C27.1555 25.4739 27.1351 23.5862 27.1981 23.4726C27.2401 23.4347 27.8263 23.2452 27.9423 23.1932C28.5373 22.9267 28.9755 22.6086 29.4349 22.1388C29.5044 22.0678 29.6055 21.9095 29.7247 21.8929L29.7364 21.8357C29.7109 21.3188 29.7333 20.7544 29.7312 20.2317C29.7305 20.0518 29.7234 20.0509 29.8487 19.9445C29.9296 19.8758 29.9842 19.8382 30.056 19.7581C30.1297 19.6757 30.1851 19.6168 30.2554 19.5395L30.4439 19.3406C30.5678 19.239 30.5418 19.2199 30.6293 19.0981L30.8604 18.7297C30.8856 18.6851 30.9097 18.6466 30.9339 18.5938L31.1698 18.0241C31.2273 17.9301 31.189 18.0123 31.2347 17.8772C31.6313 16.7054 31.5527 17.4638 30.9493 16.457C30.8933 16.3636 30.8695 16.2995 30.8145 16.199C30.715 16.0171 30.5692 15.5635 30.5191 15.33C30.4403 14.9624 30.4766 14.6708 30.5108 14.2617C30.5428 13.8789 30.751 13.4362 30.914 13.1172C31.0082 12.9328 31.1532 12.7891 31.2268 12.6439C31.1124 12.497 30.3981 12.1566 29.9885 11.3576C29.5924 10.5854 29.5587 10.2604 29.6096 9.22404L29.4672 9.1646C29.4272 9.15458 29.3862 9.1511 29.3388 9.14157C29.2534 9.12429 29.2052 9.10144 29.1114 9.07679C28.7022 8.96901 28.1402 8.74745 27.7806 8.55228C26.3312 7.76555 27.4931 7.88107 25.9998 7.88077C25.3233 7.88059 25.2645 7.76279 24.9519 8.05807C24.7402 8.25815 24.4757 8.40714 24.2183 8.5515C23.3371 9.04602 22.5715 9.11494 22.3996 9.19405C22.3514 9.60466 22.4542 9.98072 22.3536 10.4402C22.2783 10.7835 22.1573 11.0762 22.0109 11.3576C21.6028 12.1429 20.8707 12.522 20.7754 12.6439C20.7971 12.7203 20.9756 12.9167 21.0866 13.1163C21.4311 13.7359 21.5286 14.2531 21.5067 15.0146C21.4866 15.7162 21.0083 16.7354 20.5277 17.1017C20.5252 17.3065 20.5803 17.4257 20.645 17.577L20.9773 18.384C21.0267 18.4791 21.1616 18.8461 21.2632 18.9711L21.4601 19.1935C21.8262 19.6023 21.6986 19.4237 21.9539 19.6622L22.2562 19.9037L22.266 21.8216Z" fill="#FEFEFE"/>
<path d="M22.4277 33.5282C22.4277 33.5282 22.76 38.901 16.3625 38.0976C16.3625 47.7352 26.0001 52.0001 26.0001 52.0001C26.0001 52.0001 35.6378 47.7352 35.6378 38.0976C29.2402 38.901 29.5726 33.5282 29.5726 33.5282H22.4277Z" fill="#9BA4D3"/>
<path d="M25.9169 45.7689L22.0399 43.0826L23.1201 41.5042L25.5846 43.1935L28.4923 39.7593L29.9604 41.0054L25.9169 45.7689Z" fill="#FEFEFE"/>
</g>
<defs>
<clipPath id="clip0">
<rect width="52" height="52" fill="white"/>
</clipPath>
</defs>
</svg>

<svg width="52" height="52" viewBox="0 0 52 52" fill="none" xmlns="http://www.w3.org/2000/svg"><g clip-path="url(#clip0)"><path fill-rule="evenodd" clip-rule="evenodd" d="M16.157 26.005l.328.24c.472.292.76.4 1.314.487 1.552.243 2.97-.625 3.537-2.044.023-.057.05-.17.075-.223.063-.13.14-.1.411-.189.158-.051.306-.087.456-.143l-.01-2.248-.002-.064-.01-1.917-.302-.242c-.256-.238-.128-.06-.494-.468l-.197-.223c-.101-.125-.236-.492-.286-.587l-.332-.807c-.065-.151-.12-.27-.117-.475.48-.367.959-1.386.979-2.087.022-.762-.076-1.28-.42-1.899-.111-.2-.29-.396-.312-.472.096-.122.828-.501 1.236-1.286.146-.282.267-.575.343-.918.1-.46-.003-.835.046-1.246.172-.08.937-.148 1.818-.643.258-.144.522-.293.734-.493.313-.295.371-.177 1.048-.177 1.493 0 .331-.115 1.78.671.36.195.922.417 1.331.525.094.024.142.047.228.065.047.01.088.013.128.023l.143.059c-.051 1.036-.018 1.361.378 2.134.41.799 1.124 1.139 1.239 1.286-.074.145-.219.289-.313.473-.163.32-.371.762-.403 1.145-.034.409-.07.7.008 1.068.05.233.196.687.296.869.054.1.078.165.134.258.604 1.007.682.248.286 1.42-.046.135-.008.053-.065.147l-.236.57c-.024.052-.048.091-.074.136l-.23.368c-.088.122-.062.14-.186.243l-.189.198-.199.219c-.072.08-.126.118-.207.187-.126.106-.119.107-.118.287.002.522-.02 1.087.005 1.604l-.011.057-.01 2.24c.28.093.578.165.846.263.306 1.031 1.08 1.862 2.044 2.19.568.192 1.227.262 1.87.107.832-.2 1.244-.659 1.405-.71.108-.177.868-.768 1.035-1.793a3.52 3.52 0 00.01-1.287c-.074-.518-.347-.927-.355-1.05.743-.542 1.158-1.662 1.127-2.64a3.393 3.393 0 00-.428-1.458c-.392-.647-.826-.9-.894-1.031.031-.074.195-.285.322-.555.098-.212.159-.396.241-.656.124-.391.09-1.235-.024-1.608-.311-1.018-.74-1.451-1.553-2.005.077-.212.734-.784.759-2.045.026-1.335-.59-1.853-.681-2.13.145-.249.283-.28.508-.793.15-.344.202-.723.15-1.106-.093-.69-.418-1.215-.931-1.658a5.075 5.075 0 00-1.649-.931c-.482-.158-1.027-.303-1.559-.356-.972-.096-.424.06-.98-.708-.397-.548-1.018-1.101-1.655-1.403C28.133.206 27.4 0 26 0c-1.7 0-3.287.46-4.507 1.626-.201.192-.31.327-.472.547-.228.312-.235.425-.363.656-.429.041-.754.058-1.155.133-.404.076-.665.16-1.022.274-1.149.366-2.392 1.275-2.583 2.582-.035.236-.008.38.008.59.022.272.023.141.056.277l.06.181c.027.053-.003-.023.029.059.174.44.35.525.51.8-.077.243-.7.772-.681 2.13.005.393.098.823.237 1.154.21.499.475.764.522.891-.407.277-.608.387-.948.813-.29.362-.454.704-.605 1.194-.255.824-.068 1.964.456 2.682.063.087.063.06.08.171-1.275 1.01-1.678 2.562-1.01 4.03.15.326.358.603.587.853.077.084.198.174.236.24-.165.427-.208.298-.374 1.024-.09.398-.053.918.028 1.31.159.77.554 1.284 1.068 1.788z" fill="#DADBED"/><path fill-rule="evenodd" clip-rule="evenodd" d="M16.157 26.005c-.112-.01-2.174.62-2.432.702-.238.075-2.247.657-2.388.73-.62.32-.79.868-.938 1.438l-.331 1.217c-.092.338-.468 1.723-.458 1.907l.699.836c.286.314 1.182 1.233 1.509 1.522.086.076.134.123.202.186l.602.508a18.83 18.83 0 001.683 1.256l2.253.187c4.477.562 4.26-2.88 4.26-2.89l-.084-1.692h3.13a2.734 2.734 0 01-.453-.808c-.272-.749-.124-1.305.063-1.994.18-.66.663-1.886.966-2.578.096-.22.29-.606.348-.818.085-.363.056-1.782.037-2.24-.242-.14-1.454-.331-2.407-1.485-.08-.097-.038-.083-.15-.104l.01 2.248c-.15.056-.298.092-.456.143-.27.088-.348.06-.41.19-.026.053-.053.165-.076.222-.566 1.42-1.985 2.287-3.537 2.044-.555-.087-.842-.195-1.314-.487l-.328-.24zm1.428 12.093c.94.415 1.927.784 3.037 1.07 2.631.677 5.505.877 8.219.499 2.121-.296 3.804-.79 5.575-1.57H33.29c-3.962-.62-3.718-4.569-3.718-4.569H27.3c-.308.525-.966 1.195-1.3 1.347-.337-.153-.985-.81-1.297-1.347h-2.275s.244 3.95-3.72 4.57h-1.123zm20.056-1.756c.905-.605 1.795-1.283 2.369-1.828.757-.72 1.353-1.29 2.041-2.1.125-.146.25-.29.338-.416.013-.193-.29-1.3-.365-1.545-.29-.947-.4-2.15-1.004-2.742-.158-.156-.296-.273-.576-.353-.117-.034-.233-.073-.366-.115-.211-.065-.116-.025-.339-.006-.062-.151-.017-.112-.412-.218l-1.456-.44c-.314-.103-.692-.202-1.007-.293-.319-.092-.662-.209-.984-.302-.161.05-.573.509-1.404.71a3.407 3.407 0 01-1.87-.108c-.964-.327-1.74-1.159-2.045-2.19-.268-.098-.566-.17-.845-.263l.009-2.24c-.12.017-.22.175-.29.246-.46.47-.898.788-1.493 1.054-.116.052-.702.242-.744.28-.063.113-.043 2-.001 2.21l.695 1.653c.23.569.437 1.14.626 1.753.216.697.316 1.267.07 2.009a2.3 2.3 0 01-.454.814h3.132l-.084 1.692c0 .01-.217 3.452 4.26 2.89l2.2-.152z" fill="#9BA4D3"/><path fill-rule="evenodd" clip-rule="evenodd" d="M24.788 25.714c-.059.212-.252.597-.348.818-.303.692-.786 1.919-.966 2.578-.187.689-.335 1.245-.063 1.994.126.349.292.611.453.808h4.27a2.3 2.3 0 00.453-.814c.247-.742.147-1.312-.069-2.01a21.8 21.8 0 00-.626-1.752l-.695-1.652c-.16-.16.007-1.741-.07-2.203-.148 0-.354.084-.5.102-.827.102-1.443-.084-1.764-.088-.009.303.063 2.096-.075 2.22zm-.085 7.814c.312.537.96 1.194 1.297 1.347.334-.152.992-.822 1.3-1.347h-2.597z" fill="#DADBED"/><path fill-rule="evenodd" clip-rule="evenodd" d="M22.266 21.822l.003.063c.111.021.069.007.149.104.953 1.154 2.165 1.345 2.407 1.484.019.46.048 1.878-.037 2.241.138-.123.066-1.916.075-2.219.321.004.937.19 1.764.088.146-.018.352-.101.5-.102.077.462-.09 2.042.07 2.203-.041-.21-.062-2.098.001-2.211.042-.038.628-.228.744-.28a4.603 4.603 0 001.493-1.054c.07-.071.17-.23.29-.246l.011-.057c-.025-.517-.003-1.082-.005-1.604 0-.18-.008-.181.118-.287.08-.07.135-.107.207-.187l.2-.218.188-.2c.124-.101.098-.12.185-.242l.231-.368c.026-.045.05-.083.074-.136l.236-.57c.057-.094.019-.012.065-.147.396-1.172.318-.413-.286-1.42-.056-.093-.08-.158-.135-.258-.099-.182-.245-.636-.295-.869-.079-.368-.042-.66-.008-1.068.032-.383.24-.826.403-1.145.094-.184.24-.328.313-.473-.115-.147-.829-.487-1.239-1.286-.396-.773-.43-1.098-.378-2.134l-.143-.06c-.04-.01-.08-.013-.128-.022-.086-.018-.134-.04-.228-.065a6.874 6.874 0 01-1.33-.525c-1.45-.786-.288-.67-1.781-.671-.677 0-.735-.118-1.048.177-.212.2-.476.35-.734.494-.88.494-1.646.563-1.818.642-.049.41.054.787-.046 1.246a3.636 3.636 0 01-.343.918c-.408.785-1.14 1.164-1.236 1.286.022.076.2.273.312.472.344.62.442 1.137.42 1.899-.02.701-.499 1.72-.98 2.087-.002.204.053.324.118.475l.332.807c.05.095.185.462.286.587l.197.223c.366.408.239.23.494.468l.302.242.01 1.918z" fill="#FEFEFE"/><path d="M22.428 33.528s.332 5.373-6.066 4.57C16.363 47.735 26 52 26 52s9.638-4.265 9.638-13.902c-6.398.803-6.065-4.57-6.065-4.57h-7.145z" fill="#9BA4D3"/><path d="M25.917 45.769l-3.877-2.686 1.08-1.579 2.465 1.69 2.907-3.435 1.468 1.246-4.043 4.764z" fill="#FEFEFE"/></g><defs><clipPath id="clip0"><path fill="#fff" d="M0 0h52v52H0z"/></clipPath></defs></svg>
